symbols/web/text_fields/materialsymbolsrounded/text_fields_grad200_40px.svg

<svg xmlns="http://www.w3.org/2000/svg" height="40" width="40"><path d="M14.083 33.5q-.958 0-1.625-.667-.666-.666-.666-1.666V11.125H5.5q-1 0-1.667-.687-.666-.688-.666-1.646 0-.959.666-1.625Q4.5 6.5 5.5 6.5h17.208q.959 0 1.625.667.667.666.667 1.625 0 .958-.667 1.646-.666.687-1.625.687h-6.333v20.042q0 1-.667 1.666-.666.667-1.625.667Zm15.167 0q-.958 0-1.625-.667-.667-.666-.667-1.666V19.625H24q-1 0-1.667-.687-.666-.688-.666-1.646 0-.959.666-1.625Q23 15 24 15h10.542q.958 0 1.625.667.666.666.666 1.625 0 .958-.666 1.646-.667.687-1.625.687h-3v11.542q0 1-.667 1.666-.667.667-1.625.667Z"/></svg>

<svg xmlns="http://www.w3.org/2000/svg" height="40" width="40"><path d="M14.083 33.5Q13.125 33.5 12.458 32.833Q11.792 32.167 11.792 31.167V11.125H5.5Q4.5 11.125 3.833 10.438Q3.167 9.75 3.167 8.792Q3.167 7.833 3.833 7.167Q4.5 6.5 5.5 6.5H22.708Q23.667 6.5 24.333 7.167Q25 7.833 25 8.792Q25 9.75 24.333 10.438Q23.667 11.125 22.708 11.125H16.375V31.167Q16.375 32.167 15.708 32.833Q15.042 33.5 14.083 33.5ZM29.25 33.5Q28.292 33.5 27.625 32.833Q26.958 32.167 26.958 31.167V19.625H24Q23 19.625 22.333 18.938Q21.667 18.25 21.667 17.292Q21.667 16.333 22.333 15.667Q23 15 24 15H34.542Q35.5 15 36.167 15.667Q36.833 16.333 36.833 17.292Q36.833 18.25 36.167 18.938Q35.5 19.625 34.542 19.625H31.542V31.167Q31.542 32.167 30.875 32.833Q30.208 33.5 29.25 33.5Z"/></svg>
